icons/restaurant-2-line.svg

<svg xmlns="http://www.w3.org/2000/svg" width="24" height="24" fill="none"><g clip-path="url(#a)"><g><path fill="#121212" d="M14.268 12.146L13.4139 13L20.485 20.071L19.0709 21.485L12 14.415L4.92895 21.485L3.51495 20.071L12.854 10.732C12.266 9.275 12.874 7.177 14.474 5.575C16.427 3.623 19.118 3.148 20.485 4.515C21.852 5.882 21.3769 8.573 19.4249 10.525C17.8229 12.127 15.7249 12.735 14.268 12.146ZM4.22195 3.808L10.939 10.525L8.11095 13.354L4.22095 9.464C3.47107 8.71389 3.0498 7.69666 3.0498 6.636C3.0498 5.57534 3.47107 4.55811 4.22095 3.808H4.22195ZM18.01 9.11C19.268 7.853 19.5269 6.384 19.0709 5.928C18.6149 5.472 17.146 5.731 15.889 6.988C14.632 8.246 14.373 9.715 14.829 10.171C15.284 10.626 16.753 10.367 18.01 9.11Z"/></g></g><defs><clipPath id="a"><rect width="24" height="24" fill="white"/></clipPath></defs></svg>

<svg width="24" height="24" fill="none" xmlns="http://www.w3.org/2000/svg"><g clip-path="url(#a)"><path d="m14.268 12.146-.854.854 7.071 7.071-1.414 1.414L12 14.415l-7.071 7.07-1.414-1.414 9.339-9.339c-.588-1.457.02-3.555 1.62-5.157 1.953-1.952 4.644-2.427 6.011-1.06s.892 4.058-1.06 6.01c-1.602 1.602-3.7 2.21-5.157 1.621ZM4.222 3.808l6.717 6.717-2.828 2.829-3.89-3.89a4 4 0 0 1 0-5.656ZM18.01 9.11c1.258-1.257 1.517-2.726 1.06-3.182-.455-.456-1.924-.197-3.181 1.06-1.257 1.258-1.516 2.727-1.06 3.183.455.455 1.924.196 3.181-1.061Z" /></g><defs><clipPath id="a"><path fill="#fff" d="M0 0h24v24H0z"/></clipPath></defs></svg>
